X: 11198
T: Dunmore Lasses, The
R: reel
M: 4/4
K: Edorian
|:E3F GFGA|Be ~e2 Be ~e2|E3F GABG|A2 BA GEED|
E3F GFGA|Beed e3f|(3gfe fd edBG|A2 BA GE E2:|
|:gfeg fede|Be ~e2 Be ~e2|gfeg fedB|A2 BA GEE f|
g2 eg fede|Beed e3f|(3gfe fd edBG|A2 BA GE E2:|

